X: 28197
T: Mrs. Campbell Of Shinness
R: jig
M: 6/8
K: Eminor
BBe efg|fae g2d|BBe efg|fge d2A|
BBe efg|fae g2d|eee e2d|efe d2A:|
BGB Bed|Bgf e2d|BGB d2B|fge d2 A|
BGB Bed|Bgf efg|a2a g2f|efe d2A:|

